X: 34689
T: Road To Errogie, The
R: reel
M: 4/4
K: Bmixolydian
|:BG|FB (3BBB cBcd|fB (3BBB cdfB|g4 fdBd|cBcd cBGB|
FB (3BBB cBcd|fB (3BBB cdfb|g4 fdBd|1 cBcd B2:|2 cBcd Bcdf||
|:b3 b- b2c'b|d'2d'c' b2bf|g2gf b2fg-|gfbf gfdf|
[1 b3 b- b2c'b|d'2d'c' b2bf|g2~g2 fdBd|cBcd Bcdf:|
[2 FB (3BBB cBcd|fB (3BBB cdfb|g4 fdBd|cBcd B2||

